Adwaita++-Light/panel/16/whatsapp-warning-msg.svg

<svg height="16" width="16" xmlns="http://www.w3.org/2000/svg">
  <g fill="#4285f4">
    <path d="m8 1c-.168875 0-.334625.0079813-.5.0195312-.021.001575-.0415.0021563-.0625.0039063-2.500225.1973125-4.6195031 1.69995-5.6894531 3.828125-.0692125.1378125-.1390188.2771219-.1992188.4199219-.3276875.7399875-.5066875 1.5239906-.5390625 2.3457031-.0014.027125-.0027687.0538281-.0039062.0800781-.0021875.07875-.0044313.1567032-.0039063.2363282-.0002625.0218749-.0019531.0445312-.0019531.0664062 0 .81375.1452125 1.5910315.3984375 2.316406.10185.3255.2196656.653828.3613281.986328.0498986.117322.0810525.200726.1191406.296875a2.5 2.5 0 0 1 1.6210938-.599609 2.5 2.5 0 0 1 2.5 2.5 2.5 2.5 0 0 1 -.2832031 1.150391c.1100886.031595.202571.053936.3417969.097656.4589375.144325.9814656.221187 1.5722656.242187.0245.0018.0497187.001053.0742187.001954.0805.002599.1610155.007812.2441407.007812h.0175781.0332031c.195125 0 .3884531-.010511.5800781-.025391 1.7307499-.123375 3.1207189-.763093 4.3710939-2.011718 1.03075-1.029 1.669875-2.298907 1.921875-3.6289066.02363-.12075.041974-.2438125.058594-.3671875.0105-.076125.021415-.1523906.029297-.2285157.016618-.1636249.025989-.3289687.03125-.4960937.001699-.042.003906-.083.003906-.125.00087-.03937.003906-.0778125.003906-.1171875 0-3.81325-3.018766-6.8923781-6.8066406-6.9941406-.02975-.0013125-.0600938-.0015156-.0898438-.0019532-.035-.000525-.0685156-.0039062-.1035156-.0039062zm-2.5 3c.8284 0 1.5.6715 1.5 1.5 0 .5 0 1.5-1 1.5 0 1 2.032 2.946 3 3 0-1 1-1 1.5-1 .828 0 1.5.672 1.5 1.5s-.672 1.5-1.5 1.5h-.5605469c-.296-.007-.6419531-.115969-1.1269531-.292969-1.623-.592-2.7496969-1.541969-3.9042969-3.2929685-.6726-1.02-.9046031-1.6333844-.9082031-2.3964844v-.5175781c0-.8285.6716-1.5 1.5-1.5z"/>
    <circle cx="3.5" cy="13.5" r="1.5"/>
  </g>
</svg>

<svg xmlns="http://www.w3.org/2000/svg" width="16" height="16" version="1.1">
 <defs>
  <style id="current-color-scheme" type="text/css">
   .ColorScheme-Text { color:#444444; } .ColorScheme-Highlight { color:#4285f4; }
  </style>
 </defs>
 <path style="fill:currentColor" class="ColorScheme-Highlight" d="M 8 1 C 7.831125 1 7.665375 1.0079813 7.5 1.0195312 C 7.479 1.0211062 7.4585 1.0216875 7.4375 1.0234375 C 4.937275 1.22075 2.8179969 2.7233875 1.7480469 4.8515625 C 1.6788344 4.989375 1.6090281 5.1286844 1.5488281 5.2714844 C 1.2211406 6.0114719 1.0421406 6.795475 1.0097656 7.6171875 C 1.0083656 7.6443125 1.0069969 7.6710156 1.0058594 7.6972656 C 1.0036719 7.7760156 1.0014281 7.8539688 1.0019531 7.9335938 C 1.0016906 7.9554687 1 7.978125 1 8 C 1 8.81375 1.1452125 9.5910315 1.3984375 10.316406 C 1.5002875 10.641906 1.6181031 10.970234 1.7597656 11.302734 C 1.8096642 11.420056 1.8408181 11.50346 1.8789062 11.599609 A 2.5 2.5 0 0 1 3.5 11 A 2.5 2.5 0 0 1 6 13.5 A 2.5 2.5 0 0 1 5.7167969 14.650391 C 5.8268855 14.681986 5.9193679 14.704327 6.0585938 14.748047 C 6.5175313 14.892372 7.0400594 14.969234 7.6308594 14.990234 C 7.6553594 14.992034 7.6805781 14.991287 7.7050781 14.992188 C 7.7855781 14.994787 7.8660936 15 7.9492188 15 L 7.9667969 15 L 8 15 C 8.195125 15 8.3884531 14.989489 8.5800781 14.974609 C 10.310828 14.851234 11.700797 14.211516 12.951172 12.962891 C 13.981922 11.933891 14.621047 10.663984 14.873047 9.3339844 C 14.896677 9.2132344 14.915021 9.0901719 14.931641 8.9667969 C 14.942141 8.8906719 14.953056 8.8144063 14.960938 8.7382812 C 14.977556 8.5746563 14.986927 8.4093125 14.992188 8.2421875 C 14.993887 8.2001875 14.996094 8.1591875 14.996094 8.1171875 C 14.996964 8.0778175 15 8.039375 15 8 C 15 4.18675 11.981234 1.1076219 8.1933594 1.0058594 C 8.1636094 1.0045469 8.1332656 1.0043438 8.1035156 1.0039062 C 8.0685156 1.0033812 8.035 1 8 1 z M 5.5 4 C 6.3284 4 7 4.6715 7 5.5 C 7 6 7 7 6 7 C 6 8 8.032 9.946 9 10 C 9 9 10 9 10.5 9 C 11.328 9 12 9.672 12 10.5 C 12 11.328 11.328 12 10.5 12 L 9.9394531 12 C 9.6434531 11.993 9.2975 11.884031 8.8125 11.707031 C 7.1895 11.115031 6.0628031 10.165062 4.9082031 8.4140625 C 4.2356031 7.3940625 4.0036 6.7806781 4 6.0175781 L 4 5.5 C 4 4.6715 4.6716 4 5.5 4 z"/>
 <circle style="fill:currentColor" class="ColorScheme-Highlight" cx="3.5" cy="13.5" r="1.5"/>
</svg>
